assets/icons/check-square-filled.svg

<svg xmlns="http://www.w3.org/2000/svg" viewBox="0 0 48 48" role="presentation" aria-hidden="true"><path fill-rule="evenodd" clip-rule="evenodd" d="M13 11C11.8954 11 11 11.8954 11 13V35C11 36.1046 11.8954 37 13 37H35C36.1046 37 37 36.1046 37 35V13C37 11.8954 36.1046 11 35 11H13ZM30.2304 20.2479C30.5514 19.7985 30.4473 19.1739 29.9979 18.8529C29.5485 18.5319 28.9239 18.636 28.6029 19.0854L22.5182 27.604L19.2904 24.3762C18.8999 23.9857 18.2668 23.9857 17.8762 24.3762C17.4857 24.7668 17.4857 25.3999 17.8762 25.7904L21.9387 29.8529C22.1466 30.0608 22.4354 30.1667 22.7283 30.1424C23.0213 30.1182 23.2887 29.9663 23.4596 29.7271L30.2304 20.2479Z" fill="currentColor"/></svg>

<svg xmlns="http://www.w3.org/2000/svg" aria-hidden="true" viewBox="0 0 48 48"><path fill="currentColor" fill-rule="evenodd" d="M13 11a2 2 0 0 0-2 2v22a2 2 0 0 0 2 2h22a2 2 0 0 0 2-2V13a2 2 0 0 0-2-2zm17.23 9.248a1 1 0 0 0-1.627-1.163l-6.085 8.519-3.228-3.228a1 1 0 0 0-1.414 1.414l4.063 4.063a1 1 0 0 0 1.52-.126z" clip-rule="evenodd"/></svg>
